X:114
T:
S:Efter Elisabet Olofsdotter, Flors i Burs.
M:2/4
L:1/8
K:C
G c c c|B A G2|A A/ G/ A B|
w:Sätt nå glas-sä för din munn! ʃuŋg fal-le-ral-la-
c G E G|G c c c|B A G2|A A/ G/ A B|
w:la-la-la-la. Drikk så äut, din fyl-lä-hund! ʃuŋg fal-le-ral-la-
c4::B c d e|f e d c|B c d e|
w:la. Ti bei-väis-niŋg vill ja vän-dä glas-sä pa däss
f e d B|c2 G2|A2 F2|E F G B|d2 c2:|
w:yv-rä än-dä. Lam-bou, lam-bou, ʃuŋg fa-ral-la, lam-bou!
